images/sale__3.svg

<svg width="80" height="80" viewBox="0 0 80 80" fill="none" xmlns="http://www.w3.org/2000/svg">
<circle cx="40" cy="40" r="40" fill="white"/>
<path d="M66.2032 55.3512C66.2032 55.3512 66.8673 57.2153 67.3385 59.1473L61.3807 60.1607C61.3807 60.1607 60.7554 58.2966 60.2358 56.6816H60.2401L53.8112 36.746L54.7503 60.1596C51.8728 63.8404 40.5535 63.9967 40.5535 63.9967C28.3739 64.3719 26.4419 60.1596 26.4419 60.1596L27.2947 36.746L20.8659 56.6827C20.3451 58.2956 19.7187 60.1618 19.7187 60.1618L13.7438 59.1484C14.2171 57.2174 14.8823 55.3523 14.8823 55.3523L23.7477 23.4355L32.9312 20.228L34.1645 17.2309C34.1645 17.2309 40.0026 14.5334 47.5096 17.2309L48.7365 20.228L57.3604 23.4355L66.2258 55.3523H66.2032V55.3512Z" stroke="#010066" stroke-width="1.5" stroke-miterlimit="10" stroke-linecap="round" stroke-linejoin="round"/>
<path d="M34.1633 17.2309C34.1633 17.2309 40.0014 14.5334 47.5084 17.2309L43.9462 21.455L43.1479 21.8625L42.3495 22.27L42.5123 23.967L40.8854 28.2515L38.7454 23.967L38.7583 22.27L37.7244 21.455L34.1633 17.2309Z" stroke="#010066" stroke-width="1.5" stroke-miterlimit="10" stroke-linecap="round" stroke-linejoin="round"/>
<path d="M42.5533 53.8268C42.5533 53.927 42.4713 54.0122 42.3678 54.0122C42.2654 54.0122 42.1835 53.927 42.1835 53.8268C42.1835 53.7211 42.2654 53.6392 42.3678 53.6392C42.4703 53.6402 42.5533 53.7222 42.5533 53.8268Z" stroke="#010066" stroke-width="1.5" stroke-miterlimit="10" stroke-linecap="round" stroke-linejoin="round"/>
<path d="M42.6255 47.1047C42.6255 47.205 42.5447 47.2891 42.4412 47.2891C42.3377 47.2891 42.2546 47.205 42.2546 47.1047C42.2546 46.998 42.3377 46.9182 42.4412 46.9182C42.5468 46.9182 42.6255 46.998 42.6255 47.1047Z" stroke="#010066" stroke-width="1.5" stroke-miterlimit="10" stroke-linecap="round" stroke-linejoin="round"/>
<path d="M42.5166 41.492C42.619 41.492 42.702 41.4089 42.702 41.3065C42.702 41.2041 42.619 41.1211 42.5166 41.1211C42.4142 41.1211 42.3312 41.2041 42.3312 41.3065C42.3312 41.4089 42.4142 41.492 42.5166 41.492Z" stroke="#010066" stroke-width="1.5" stroke-miterlimit="10" stroke-linecap="round" stroke-linejoin="round"/>
<path d="M42.9597 34.5845C42.9597 34.6858 42.88 34.7688 42.7765 34.7688C42.673 34.7688 42.5889 34.6858 42.5889 34.5845C42.5889 34.4799 42.673 34.3979 42.7765 34.3979C42.88 34.3979 42.9597 34.4799 42.9597 34.5845Z" stroke="#010066" stroke-width="1.5" stroke-miterlimit="10" stroke-linecap="round" stroke-linejoin="round"/>
<path d="M43.1463 28.4907C43.2487 28.4907 43.3317 28.4077 43.3317 28.3053C43.3317 28.2029 43.2487 28.1199 43.1463 28.1199C43.0438 28.1199 42.9608 28.2029 42.9608 28.3053C42.9608 28.4077 43.0438 28.4907 43.1463 28.4907Z" stroke="#010066" stroke-width="1.5" stroke-miterlimit="10" stroke-linecap="round" stroke-linejoin="round"/>
<path d="M20.8657 56.6827C20.345 58.2956 19.7186 60.1618 19.7186 60.1618L13.7437 59.1484C14.2169 57.2175 14.8822 55.3523 14.8822 55.3523L20.8657 56.6827Z" stroke="#010066" stroke-width="1.5" stroke-miterlimit="10" stroke-linecap="round" stroke-linejoin="round"/>
<path d="M60.2356 56.6827C60.7542 58.2956 61.3806 60.1618 61.3806 60.1618L67.3383 59.1484C66.8671 57.2175 66.203 55.3523 66.203 55.3523L60.2356 56.6827Z" stroke="#010066" stroke-width="1.5" stroke-miterlimit="10" stroke-linecap="round" stroke-linejoin="round"/>
<path d="M34.1633 17.231L32.9299 20.2271L35.5002 27.3416L37.7244 21.4551L34.1633 17.231Z" stroke="#010066" stroke-miterlimit="10" stroke-linecap="round" stroke-linejoin="round"/>
<path d="M47.5083 17.231L48.7395 20.2271L46.1704 27.3416L43.9473 21.4551L47.5083 17.231Z" stroke="#010066" stroke-miterlimit="10" stroke-linecap="round" stroke-linejoin="round"/>
<path d="M41.0439 63.9838C39.9194 57.6208 40.8854 28.2515 40.8854 28.2515L38.7454 23.9671L38.7583 22.2701L37.7244 21.4551L34.1633 17.231L32.9299 20.2281L23.7465 23.4356L14.8811 55.3513C14.8811 55.3513 14.2159 57.2154 13.7426 59.1474L19.7175 60.1608C19.7175 60.1608 20.345 58.2967 20.8646 56.6817L27.2924 36.7461L26.4396 60.1597C26.4396 60.1597 28.3716 64.3709 40.5512 63.9968C40.5523 63.9968 40.5739 64.0033 41.0439 63.9838Z" stroke="#010066" stroke-width="0.5" stroke-miterlimit="10" stroke-linecap="round" stroke-linejoin="round"/>
<path d="M47.5084 17.2309C40.0014 14.5334 34.1633 17.2309 34.1633 17.2309L35.5983 18.9321C37.5724 18.3661 41.4116 17.6804 46.0389 18.9677L47.5084 17.2309Z" stroke="#010066" stroke-width="0.5" stroke-miterlimit="10" stroke-linecap="round" stroke-linejoin="round"/>
</svg>

<svg width="80" height="80" fill="none" xmlns="http://www.w3.org/2000/svg"><circle cx="40" cy="40" r="40" fill="#fff"/><path d="M66.203 55.351s.664 1.864 1.135 3.796l-5.957 1.014s-.626-1.864-1.145-3.48h.004l-6.429-19.935.94 23.414c-2.878 3.68-14.197 3.837-14.197 3.837-12.18.375-14.112-3.837-14.112-3.837l.853-23.414-6.43 19.937c-.52 1.613-1.146 3.479-1.146 3.479l-5.975-1.014c.473-1.93 1.138-3.796 1.138-3.796l8.866-31.916 9.183-3.208 1.233-2.997s5.839-2.698 13.346 0l1.227 2.997 8.623 3.207 8.866 31.917h-.023v0Z" stroke="#010066" stroke-width="1.5" stroke-miterlimit="10" stroke-linecap="round" stroke-linejoin="round"/><path d="M34.163 17.23s5.838-2.697 13.345 0l-3.562 4.225-.798.408-.799.407.163 1.697-1.627 4.285-2.14-4.285.013-1.697-1.034-.815-3.56-4.224ZM42.553 53.827c0 .1-.082.185-.185.185a.186.186 0 0 1-.184-.185c0-.106.081-.188.184-.188a.187.187 0 0 1 .185.188ZM42.626 47.105a.186.186 0 0 1-.37 0c-.001-.107.082-.187.185-.187a.18.18 0 0 1 .184.187ZM42.517 41.492a.185.185 0 1 0 0-.371.185.185 0 0 0 0 .371ZM42.96 34.584c0 .102-.08.185-.184.185a.186.186 0 0 1-.187-.184c0-.105.084-.187.188-.187.103 0 .183.082.183.186ZM43.146 28.49a.185.185 0 1 0 0-.37.185.185 0 0 0 0 .37ZM20.866 56.683c-.521 1.613-1.147 3.479-1.147 3.479l-5.975-1.014c.473-1.93 1.138-3.796 1.138-3.796l5.984 1.33ZM60.236 56.683c.518 1.613 1.145 3.479 1.145 3.479l5.957-1.014c-.47-1.93-1.135-3.796-1.135-3.796l-5.967 1.33Z" stroke="#010066" stroke-width="1.5" stroke-miterlimit="10" stroke-linecap="round" stroke-linejoin="round"/><path d="m34.163 17.231-1.233 2.996 2.57 7.115 2.224-5.887-3.56-4.224ZM47.508 17.231l1.231 2.996-2.569 7.115-2.223-5.887 3.561-4.224Z" stroke="#010066" stroke-miterlimit="10" stroke-linecap="round" stroke-linejoin="round"/><path d="M41.044 63.984c-1.125-6.363-.159-35.733-.159-35.733l-2.14-4.284.013-1.697-1.034-.815-3.56-4.224-1.234 2.997-9.183 3.208L14.88 55.35s-.665 1.864-1.138 3.796l5.975 1.014s.627-1.864 1.147-3.48l6.427-19.935-.852 23.414s1.932 4.21 14.111 3.837c.001 0 .023.006.493-.013Z" stroke="#010066" stroke-width=".5" stroke-miterlimit="10" stroke-linecap="round" stroke-linejoin="round"/><path d="M47.508 17.23c-7.507-2.697-13.345 0-13.345 0l1.435 1.702c1.974-.566 5.814-1.252 10.44.036l1.47-1.737Z" stroke="#010066" stroke-width=".5" stroke-miterlimit="10" stroke-linecap="round" stroke-linejoin="round"/></svg>
